dist/assets/svg/gap-cover.svg

<!-- Generated by IcoMoon.io -->
<svg version="1.1" xmlns="http://www.w3.org/2000/svg" width="32" height="32" viewBox="0 0 32 32">
<title>gap-cover</title>
<path d="M15.467 0h-0.853l5.12 5.12 1.813-1.813c4.373 2.027 7.467 6.293 8 11.307h2.027c-0.747-8.107-7.68-14.613-16.107-14.613z"></path>
<path d="M10.027 28.587c-4.373-2.027-7.467-6.293-8-11.307h-2.027c0.64 8.213 7.573 14.72 16 14.72h0.853l-5.12-5.12-1.707 1.707z"></path>
<path d="M16.96 11.947h-1.92v3.093h-3.093v1.92h3.093v3.093h1.92v-3.093h3.093v-1.92h-3.093z"></path>
<path d="M21.44 8.32h-10.88c-1.173 0-2.24 0.96-2.24 2.24v10.88c0 1.173 0.96 2.24 2.24 2.24h10.88c1.173 0 2.24-0.96 2.24-2.24v-10.88c0-1.173-1.067-2.24-2.24-2.24zM22.4 21.44c0 0.533-0.427 0.96-0.96 0.96h-10.88c-0.533 0-0.96-0.427-0.96-0.96v-10.88c0-0.533 0.427-0.96 0.96-0.96h10.88c0.533 0 0.96 0.427 0.96 0.96v10.88z"></path>
</svg>

<?xml version="1.0" encoding="utf-8"?>
<!-- Generator: Adobe Illustrator 23.0.3, SVG Export Plug-In . SVG Version: 6.00 Build 0)  -->
<svg version="1.1" id="Layer_1" xmlns="http://www.w3.org/2000/svg" xmlns:xlink="http://www.w3.org/1999/xlink" x="0px" y="0px"
	 viewBox="0 0 32 32" style="enable-background:new 0 0 32 32;" xml:space="preserve">
<style type="text/css">
	.st0{fill:#084B8D;}
</style>
<title>gap-cover</title>
<path class="st0" d="M15.5,0h-0.9l5.1,5.1l1.8-1.8c4.4,2,7.5,6.3,8,11.3h2C30.8,6.5,23.9,0,15.5,0L15.5,0z"/>
<path class="st0" d="M10,28.6c-4.4-2-7.5-6.3-8-11.3H0C0.6,25.5,7.6,32,16,32h0.9l-5.1-5.1L10,28.6L10,28.6z"/>
<path class="st0" d="M17,11.9H15V15h-3.1V17H15v3.1H17V17h3.1V15H17V11.9z"/>
<path class="st0" d="M21.4,8.3H10.6c-1.2,0-2.2,1-2.2,2.2v10.9c0,1.2,1,2.2,2.2,2.2h10.9c1.2,0,2.2-1,2.2-2.2V10.6
	C23.7,9.4,22.6,8.3,21.4,8.3z M22.4,21.4c0,0.5-0.4,1-1,1H10.6c-0.5,0-1-0.4-1-1V10.6c0-0.5,0.4-1,1-1h10.9c0.5,0,1,0.4,1,1V21.4z"
	/>
</svg>
